!!!SOCIAL_FUNCTION:	songs of the horse society (dream societies)
!!!PDT:	1918

Specific Region: Dakotas, Minnesota, Montana, Nebraska
!!!REG: Dakotas and Montana
!!!LING_GROUP: Siouan
!!!LANG: Tone
!!!OTL@ENG: Prancing They Come
!!!ONM: No. 111
**kern
*Imale
*clefF4
*k[f#c#]
*M3/4
*MM104
4f#
4f#
8.f#
16e
=1||
*M2/4
8e
8d
4d
=2||
*M3/4
4d
4d
8.d
16B
=3||
*M2/4
8B
8A
4A
=4||
*M3/4
4F#
4B
8.B
16B
=5||
*M2/4
8B
8A
4A
=6
4F#
4F#
=7
16A
8.F#
8.F#
16F#
=8
2F#
=9
2F#
=10
12F#
12F#
12A
4d
=11||
*M3/4
16d
8.d
4d
4d
=12
4B
4B
8.B
16B
=13||
*M2/4
8B
8A
4A
=14||
*M3/4
4F#
4B
8.B
16B
=15||
*M2/4
8B
8A
4A
=16
4F#
4F#
=17
16A
8.F#
8.F#
16F#
=18
2F#
=19
2F#
==
*-
!!!CNT: Native American -- Sioux
!!!MRD: 1911/07//-1914///
!!!OCL: Frances Densmore
!!!YOR1: Teton Sioux Music, Bulletin 61,
!!!YOR2: Bureau of American Ethnology, Smithsonian Institution
!!!PPR: Government Printing Office
!!!PPP: Washington, D.C.
!!!PDT: 1918///
!!!ENC: Craig Stuart Sapp
!!!END: 2002/03/25/
!!!EEV: 2002/03/31/
!!!AGN: Society Song/Song of the Horse Society
!!!MPN@@SIO: Waha'chungka-nong'pa
!!!MPN@ENG: Two Shields
!!!TXO: Teton Sioux
!!!MLC: Standing Rock Reservation, South Dakota, United States of America
!!!ARL: 45.9/-100.7#
!!!catalog: Catalogue No. 537
!!!PPG: 302
!!!EFL: 111/245
!!!VTS: 2960903799
